Newaita/actions/22/code-block.svg

<svg height="22" viewBox="0 0 22 22" width="22" xmlns="http://www.w3.org/2000/svg"><g fill="#424242"><path d="m7.730469 1.992188h6.367187c.503906 0 .910156.40625.910156.910156v6.367187c0 .5-.40625.90625-.910156.90625h-6.367187c-.5 0-.910157-.40625-.910157-.90625v-6.367187c0-.503906.410157-.910156.910157-.910156zm0 0"/><path d="m2.730469 11.996094h6.367187c.5 0 .90625.40625.90625.910156v6.367188c0 .503906-.40625.910156-.90625.910156h-6.367187c-.503907 0-.910157-.40625-.910157-.910156v-6.367188c0-.503906.40625-.910156.910157-.910156zm0 0"/><path d="m12.734375 11.996094h6.367187c.503907 0 .910157.40625.910157.910156v6.367188c0 .503906-.40625.910156-.910157.910156h-6.367187c-.503906 0-.910156-.40625-.910156-.910156v-6.367188c0-.503906.40625-.910156.910156-.910156zm0 0"/></g></svg>

<svg xmlns="http://www.w3.org/2000/svg" xmlns:xlink="http://www.w3.org/1999/xlink" width="22px" height="22px" viewBox="0 0 22 22" version="1.1">
<g id="surface1">
     <defs>
  <style id="current-color-scheme" type="text/css">
   .ColorScheme-Text { color:#424242; } .ColorScheme-Highlight { color:#eeeeee; }
  </style>
 </defs>
<path style="fill:currentColor" class="ColorScheme-Text" d="M 7.730469 1.992188 L 14.097656 1.992188 C 14.601562 1.992188 15.007812 2.398438 15.007812 2.902344 L 15.007812 9.269531 C 15.007812 9.769531 14.601562 10.175781 14.097656 10.175781 L 7.730469 10.175781 C 7.230469 10.175781 6.820312 9.769531 6.820312 9.269531 L 6.820312 2.902344 C 6.820312 2.398438 7.230469 1.992188 7.730469 1.992188 Z M 7.730469 1.992188 "/>
     <defs>
  <style id="current-color-scheme" type="text/css">
   .ColorScheme-Text { color:#424242; } .ColorScheme-Highlight { color:#eeeeee; }
  </style>
 </defs>
<path style="fill:currentColor" class="ColorScheme-Text" d="M 2.730469 11.996094 L 9.097656 11.996094 C 9.597656 11.996094 10.003906 12.402344 10.003906 12.90625 L 10.003906 19.273438 C 10.003906 19.777344 9.597656 20.183594 9.097656 20.183594 L 2.730469 20.183594 C 2.226562 20.183594 1.820312 19.777344 1.820312 19.273438 L 1.820312 12.90625 C 1.820312 12.402344 2.226562 11.996094 2.730469 11.996094 Z M 2.730469 11.996094 "/>
     <defs>
  <style id="current-color-scheme" type="text/css">
   .ColorScheme-Text { color:#424242; } .ColorScheme-Highlight { color:#eeeeee; }
  </style>
 </defs>
<path style="fill:currentColor" class="ColorScheme-Text" d="M 12.734375 11.996094 L 19.101562 11.996094 C 19.605469 11.996094 20.011719 12.402344 20.011719 12.90625 L 20.011719 19.273438 C 20.011719 19.777344 19.605469 20.183594 19.101562 20.183594 L 12.734375 20.183594 C 12.230469 20.183594 11.824219 19.777344 11.824219 19.273438 L 11.824219 12.90625 C 11.824219 12.402344 12.230469 11.996094 12.734375 11.996094 Z M 12.734375 11.996094 "/>
</g>
</svg>
